src/wp-content/themes/aquaban/assets/images/vk.svg

<svg width="43" height="43" viewBox="0 0 43 43" fill="none" xmlns="http://www.w3.org/2000/svg">
<path d="M0 10C0 4.47715 4.47715 0 10 0H33C38.5228 0 43 4.47715 43 10V33C43 38.5228 38.5228 43 33 43H10C4.47715 43 0 38.5228 0 33V10Z" fill="#70C3F7"/>
<path d="M34.9454 28.3498C34.8696 28.2229 34.4008 27.2042 32.1449 25.1105C29.7833 22.918 30.1005 23.274 32.945 19.4831C34.6775 17.1743 35.3701 15.7643 35.1534 15.1616C34.9472 14.587 33.6729 14.7386 33.6729 14.7386L29.4361 14.7633C29.4361 14.7633 29.1223 14.721 28.8879 14.8602C28.6606 14.9977 28.5143 15.3149 28.5143 15.3149C28.5143 15.3149 27.8428 17.102 26.9475 18.6212C25.06 21.8271 24.3039 21.9963 23.9955 21.7971C23.2781 21.3336 23.4579 19.9325 23.4579 18.9385C23.4579 15.8313 23.9285 14.5359 22.5397 14.2011C22.0779 14.09 21.7395 14.016 20.5605 14.0037C19.0483 13.9878 17.767 14.009 17.0427 14.3632C16.5598 14.5994 16.1879 15.1263 16.4153 15.1563C16.6955 15.1933 17.33 15.3273 17.6666 15.7855C18.1019 16.3759 18.086 17.7048 18.086 17.7048C18.086 17.7048 18.3363 21.3618 17.5027 21.8165C16.9299 22.1285 16.1456 21.4922 14.4625 18.5825C13.6007 17.0932 12.9486 15.4453 12.9486 15.4453C12.9486 15.4453 12.8234 15.1387 12.5996 14.9748C12.3282 14.7756 11.9475 14.7122 11.9475 14.7122L7.91862 14.7368C7.91862 14.7368 7.31411 14.7545 7.09204 15.0171C6.89465 15.2515 7.07618 15.7344 7.07618 15.7344C7.07618 15.7344 10.2309 23.1136 13.8016 26.8341C17.0779 30.2444 20.7967 30.0206 20.7967 30.0206H22.4815C22.4815 30.0206 22.9909 29.9642 23.2499 29.684C23.4896 29.4267 23.4808 28.9437 23.4808 28.9437C23.4808 28.9437 23.4473 26.6826 24.4977 26.3495C25.5323 26.0216 26.8612 28.5349 28.2693 29.5024C29.3338 30.2338 30.1428 30.0735 30.1428 30.0735L33.9091 30.0206C33.9091 30.0206 35.8795 29.899 34.9454 28.3498Z" fill="#18171D"/>
</svg>

<svg width="43" height="43" fill="none" xmlns="http://www.w3.org/2000/svg"><path d="M0 10C0 4.477 4.477 0 10 0h23c5.523 0 10 4.477 10 10v23c0 5.523-4.477 10-10 10H10C4.477 43 0 38.523 0 33V10z" fill="#70C3F7"/><path d="M34.945 28.35c-.075-.127-.544-1.146-2.8-3.24-2.362-2.192-2.045-1.836.8-5.627 1.733-2.309 2.425-3.719 2.208-4.321-.206-.575-1.48-.423-1.48-.423l-4.237.024s-.314-.042-.548.097c-.227.138-.374.455-.374.455s-.671 1.787-1.566 3.306c-1.888 3.206-2.644 3.375-2.953 3.176-.717-.463-.537-1.864-.537-2.858 0-3.108.47-4.403-.918-4.738-.462-.111-.8-.185-1.98-.197-1.512-.016-2.793.005-3.517.36-.483.235-.855.762-.628.792.28.037.915.171 1.252.63.435.59.419 1.919.419 1.919s.25 3.657-.583 4.112c-.573.311-1.357-.325-3.04-3.235-.862-1.489-1.514-3.137-1.514-3.137s-.126-.306-.35-.47c-.27-.2-.652-.263-.652-.263l-4.028.025s-.605.018-.827.28c-.197.235-.016.717-.016.717s3.155 7.38 6.726 11.1c3.276 3.41 6.995 3.187 6.995 3.187h1.684s.51-.057.769-.337c.24-.257.23-.74.23-.74s-.033-2.261 1.018-2.595c1.034-.327 2.363 2.186 3.771 3.153 1.065.732 1.874.572 1.874.572l3.766-.053s1.97-.122 1.036-1.671z" fill="#18171D"/></svg>
